FINK
CUT[KAFFEECHEN KAFFEECHEN]
REG[Europa, Mitteleuropa, Deutschland]
KEY[F0092  16  F 3/8]
MEL[5_  5_3_5_  5_3_5_  6_6_+16  5__
    3_  4_4_4_  3_4_5_  5_4_3_  2__
    2_  2_-7_2_  3_3_3_  4_3_2_  5__
    5_  6_67+16  5_3_5_  4_2_-7_  1__ //] >>
FCT[Scherz -, Loblied auf Kaffee]
